X:1
T:Mr. James Duff Stuart (Aberlour)
C:J. Scott Skinner
M:C|
L:1/8
R:Reel
B:Skinner – Miller o’ Hirn Collection (1881, No. 118, p. 61)
Z:AK/Fiddler’s Companion
K:Gmin
D|G/G/G (Bd) gdBG|F/F/F (Ac) fcAF|G/G/G (Bd) gdBG|^FGDC B,G,G,:|
d|g/g/g (bg) ^fgdg|=efcf efcf|g/g/g (bg) ^fgdc|BG ^Fd BGGd|
g/g/g (bg) ^fgdg|=efcf efcf|gba^f gdcB|AG^FA BGG||

